assets/img/braze_icons/webcam-01.svg

<svg fill="none" height="24" viewBox="0 0 24 24" width="24" xmlns="http://www.w3.org/2000/svg"><path clip-rule="evenodd" d="m21 10c0 4.6326-3.5 8.4476-8 8.9451v2.0549h4c.5523 0 1 .4477 1 1s-.4477 1-1 1h-10c-.55228 0-1-.4477-1-1s.44772-1 1-1h4v-2.0549c-4.49995-.4975-8-4.3125-8-8.9451 0-4.97056 4.02944-9 9-9 4.9706 0 9 4.02944 9 9zm-6 0c0 1.6569-1.3431 3-3 3s-3-1.3431-3-3c0-1.65685 1.3431-3 3-3s3 1.34315 3 3z" fill="#801ed7" fill-rule="evenodd"/></svg>

<svg width="24" height="24" viewBox="0 0 24 24" fill="none" xmlns="http://www.w3.org/2000/svg">
<path fill-rule="evenodd" clip-rule="evenodd" d="M21 10C21 14.6326 17.5 18.4476 13 18.9451V21H17C17.5523 21 18 21.4477 18 22C18 22.5523 17.5523 23 17 23H7C6.44772 23 6 22.5523 6 22C6 21.4477 6.44772 21 7 21H11V18.9451C6.50005 18.4476 3 14.6326 3 10C3 5.02944 7.02944 1 12 1C16.9706 1 21 5.02944 21 10ZM15 10C15 11.6569 13.6569 13 12 13C10.3431 13 9 11.6569 9 10C9 8.34315 10.3431 7 12 7C13.6569 7 15 8.34315 15 10Z" fill="#801ED7"/>
</svg>
